public/images/logo-w.svg

<svg xmlns="http://www.w3.org/2000/svg" width="129" height="36" viewBox="0 0 129 36" fill="none"><path d="M50.537 35.429C48.777 35.429 47.226 35.022 45.884 34.208C44.542 33.394 43.497 32.316 42.749 30.974C42.023 29.61 41.66 28.103 41.66 26.453C41.66 24.803 42.045 23.296 42.815 21.932C43.585 20.546 44.63 19.446 45.95 18.632C47.292 17.818 48.821 17.411 50.537 17.411C52.253 17.411 53.76 17.818 55.058 18.632C56.378 19.446 57.401 20.546 58.127 21.932C58.875 23.296 59.249 24.803 59.249 26.453C59.249 26.695 59.238 26.948 59.216 27.212C59.194 27.476 59.161 27.751 59.117 28.037H46.28C46.522 29.049 47.006 29.874 47.732 30.512C48.48 31.15 49.415 31.469 50.537 31.469C51.505 31.469 52.341 31.249 53.045 30.809C53.771 30.369 54.332 29.819 54.728 29.159L58.193 31.766C57.511 32.844 56.488 33.724 55.124 34.406C53.76 35.088 52.231 35.429 50.537 35.429ZM50.471 21.239C49.415 21.239 48.513 21.558 47.765 22.196C47.017 22.834 46.522 23.67 46.28 24.704H54.761C54.519 23.758 54.013 22.944 53.243 22.262C52.495 21.58 51.571 21.239 50.471 21.239ZM57.9112 35L64.3462 26.42L58.2412 17.84H63.5542L67.0522 23.285L70.6822 17.84H75.8962L69.7912 26.486L76.2262 35H70.8142L67.0852 29.522L63.2242 35H57.9112ZM83.7224 35C82.0284 35 80.7304 34.582 79.8284 33.746C78.9264 32.91 78.4754 31.557 78.4754 29.687V21.635H76.0664V17.84H78.4754V14.375L82.9304 13.913V17.84H86.5604V21.635H82.9304V29.456C82.9304 30.512 83.3924 31.04 84.3164 31.04H86.1644V35H83.7224ZM90.2605 16.421C89.5125 16.421 88.8745 16.168 88.3465 15.662C87.8405 15.134 87.5875 14.507 87.5875 13.781C87.5875 13.077 87.8405 12.472 88.3465 11.966C88.8745 11.438 89.5125 11.174 90.2605 11.174C91.0305 11.174 91.6685 11.438 92.1745 11.966C92.6805 12.472 92.9335 13.077 92.9335 13.781C92.9335 14.529 92.6805 15.156 92.1745 15.662C91.6685 16.168 91.0305 16.421 90.2605 16.421ZM88.0495 35V17.84H92.5045V35H88.0495ZM103.323 35.429C102.091 35.429 100.936 35.198 99.8583 34.736C98.8023 34.274 97.8673 33.636 97.0533 32.822C96.2393 31.986 95.6013 31.029 95.1393 29.951C94.6993 28.851 94.4793 27.674 94.4793 26.42C94.4793 24.748 94.8643 23.241 95.6343 21.899C96.4263 20.535 97.5043 19.446 98.8683 18.632C100.254 17.818 101.816 17.411 103.554 17.411C105.116 17.389 106.513 17.664 107.745 18.236C108.977 18.808 109.956 19.6 110.682 20.612L107.25 23.417C106.854 22.823 106.337 22.35 105.699 21.998C105.083 21.646 104.39 21.47 103.62 21.47C102.674 21.47 101.849 21.701 101.145 22.163C100.441 22.603 99.8913 23.197 99.4953 23.945C99.1213 24.693 98.9343 25.518 98.9343 26.42C98.9343 27.3 99.1323 28.125 99.5283 28.895C99.9463 29.643 100.507 30.248 101.211 30.71C101.937 31.15 102.773 31.37 103.719 31.37C104.577 31.37 105.303 31.183 105.897 30.809C106.491 30.413 107.008 29.918 107.448 29.324L110.682 32.129C109.868 33.163 108.856 33.977 107.646 34.571C106.458 35.143 105.017 35.429 103.323 35.429ZM119.566 35.429C117.806 35.429 116.255 35.022 114.913 34.208C113.571 33.394 112.526 32.316 111.778 30.974C111.052 29.61 110.689 28.103 110.689 26.453C110.689 24.803 111.074 23.296 111.844 21.932C112.614 20.546 113.659 19.446 114.979 18.632C116.321 17.818 117.85 17.411 119.566 17.411C121.282 17.411 122.789 17.818 124.087 18.632C125.407 19.446 126.43 20.546 127.156 21.932C127.904 23.296 128.278 24.803 128.278 26.453C128.278 26.695 128.267 26.948 128.245 27.212C128.223 27.476 128.19 27.751 128.146 28.037H115.309C115.551 29.049 116.035 29.874 116.761 30.512C117.509 31.15 118.444 31.469 119.566 31.469C120.534 31.469 121.37 31.249 122.074 30.809C122.8 30.369 123.361 29.819 123.757 29.159L127.222 31.766C126.54 32.844 125.517 33.724 124.153 34.406C122.789 35.088 121.26 35.429 119.566 35.429ZM119.5 21.239C118.444 21.239 117.542 21.558 116.794 22.196C116.046 22.834 115.551 23.67 115.309 24.704H123.79C123.548 23.758 123.042 22.944 122.272 22.262C121.524 21.58 120.6 21.239 119.5 21.239Z" fill="white"></path><g clip-path="url(#clip0_89_43)"><path fill-rule="evenodd" clip-rule="evenodd" d="M16.0137 35.9155C15.2242 35.9084 14.8369 35.9084 14.8369 35.9084C24.4004 29.3169 31.4465 22.162 35.975 14.4366C38.1425 17.5563 39.2225 19.1127 39.2225 19.1127C31.3124 27.1549 23.5811 32.7535 16.0137 35.9155ZM0.960823 35.8239L0 35.8169C13.2877 26.5986 22.7767 14.662 28.4523 0C30.4261 4.5 31.8934 7.57042 32.8617 9.21831C25.3687 20.7606 13.8016 29.6268 0.960823 35.8239Z" fill="url(#paint0_linear_89_43)"></path></g><defs><linearGradient id="paint0_linear_89_43" x1="19.6112" y1="0" x2="19.6112" y2="35.9155" gradientUnits="userSpaceOnUse"><stop stop-color="#E14A4F"></stop><stop offset="1" stop-color="#FEAF06"></stop></linearGradient><clipPath id="clip0_89_43"><rect width="40" height="36" fill="white"></rect></clipPath></defs></svg>

<svg xmlns="http://www.w3.org/2000/svg" width="129" height="36" fill="none"><path fill="#fff" d="M50.537 35.429q-2.64 0-4.653-1.221a8.66 8.66 0 0 1-3.135-3.234q-1.089-2.046-1.089-4.521t1.155-4.521a8.86 8.86 0 0 1 3.135-3.3q2.013-1.221 4.587-1.221t4.521 1.221a8.37 8.37 0 0 1 3.069 3.3q1.122 2.046 1.122 4.521 0 .363-.033.759a12 12 0 0 1-.099.825H46.28q.363 1.518 1.452 2.475 1.122.957 2.805.957 1.452 0 2.508-.66 1.089-.66 1.683-1.65l3.465 2.607q-1.023 1.617-3.069 2.64t-4.587 1.023m-.066-14.19q-1.584 0-2.706.957t-1.485 2.508h8.481q-.363-1.419-1.518-2.442-1.122-1.023-2.772-1.023M57.911 35l6.435-8.58-6.105-8.58h5.313l3.498 5.445 3.63-5.445h5.214l-6.105 8.646L76.226 35h-5.412l-3.729-5.478L63.225 35zm25.811 0q-2.541 0-3.894-1.254t-1.353-4.059v-8.052h-2.409V17.84h2.41v-3.465l4.454-.462v3.927h3.63v3.795h-3.63v7.821q0 1.584 1.386 1.584h1.848V35zm6.538-18.579a2.67 2.67 0 0 1-1.913-.759 2.63 2.63 0 0 1-.76-1.881q0-1.056.76-1.815a2.6 2.6 0 0 1 1.913-.792q1.155 0 1.914.792.76.759.76 1.815 0 1.122-.76 1.881-.759.759-1.914.759M88.05 35V17.84h4.454V35zm15.273.429a8.7 8.7 0 0 1-3.465-.693 9.1 9.1 0 0 1-2.805-1.914 9.4 9.4 0 0 1-1.914-2.871 9.4 9.4 0 0 1-.66-3.531q0-2.508 1.155-4.521a9 9 0 0 1 3.234-3.267q2.079-1.221 4.686-1.221 2.343-.033 4.191.825t2.937 2.376l-3.432 2.805a4.4 4.4 0 0 0-1.551-1.419q-.924-.528-2.079-.528-1.419 0-2.475.693a4.6 4.6 0 0 0-1.65 1.782q-.56 1.122-.56 2.475 0 1.32.593 2.475a5.1 5.1 0 0 0 1.683 1.815q1.089.66 2.508.66 1.287 0 2.178-.561a6.2 6.2 0 0 0 1.551-1.485l3.234 2.805a8.7 8.7 0 0 1-3.036 2.442q-1.782.858-4.323.858m16.243 0q-2.64 0-4.653-1.221a8.66 8.66 0 0 1-3.135-3.234q-1.089-2.046-1.089-4.521t1.155-4.521a8.86 8.86 0 0 1 3.135-3.3q2.013-1.221 4.587-1.221t4.521 1.221a8.37 8.37 0 0 1 3.069 3.3q1.122 2.046 1.122 4.521 0 .363-.033.759a12 12 0 0 1-.099.825h-12.837q.363 1.518 1.452 2.475 1.122.957 2.805.957 1.452 0 2.508-.66 1.089-.66 1.683-1.65l3.465 2.607q-1.023 1.617-3.069 2.64t-4.587 1.023m-.066-14.19q-1.584 0-2.706.957t-1.485 2.508h8.481q-.363-1.419-1.518-2.442-1.122-1.023-2.772-1.023"/><g clip-path="url(#a)"><path fill="url(#b)" fill-rule="evenodd" d="M16.014 35.916c-.79-.008-1.177-.008-1.177-.008q14.345-9.885 21.138-21.471l3.247 4.676c-7.91 8.042-15.64 13.64-23.208 16.803M.96 35.824 0 35.817C13.288 26.599 22.777 14.662 28.452 0c1.974 4.5 3.441 7.57 4.41 9.218C25.369 20.761 13.802 29.627.96 35.824" clip-rule="evenodd"/></g><defs><linearGradient id="b" x1="19.611" x2="19.611" y1="0" y2="35.916" gradientUnits="userSpaceOnUse"><stop stop-color="#E14A4F"/><stop offset="1" stop-color="#FEAF06"/></linearGradient><clipPath id="a"><path fill="#fff" d="M0 0h40v36H0z"/></clipPath></defs></svg>
